X:137
T:The Steamboat
Z:Jack Campin, http://www.campin.me.uk/
F:Jack Campin's Nine-Note Tunebook
% last edit 03-02-2013
M:6/8
L:1/8
Q:3/8=116
K:D
d2A F2D|DFA d3 |dcB AGF|EFG FED|
d2A F2D|DFA d2d|dcB AGF|AFD D3:|
F2A ABA|ABA F2D|G2B BcB|Bcd B2A|
F2A ABA|ABA F2D|dcB AGF|AFD D3:|

